!!!COM: Corelli, Arcangelo
!!!OTL: 
!!!ONM: Opus 6, No. 11
!!!OMV: 6
!!!CDT: 1653/2/17/-1713/1/8/
!!!OCY: Italia
**kern	**kern
*clefG	*clefG
*k[b-]	*k[b-]
*d:	*d:
*M6/8	*M6/8
*tb24	*tb24
2r	2r
8r	8r
8r	8ff
=1	=1
4.f	8dd
.	8cc
.	8b-
4.dd	4ff
.	8bb-
=2	=2
4.cc	4aa
.	8cc
4r	4f
8dd	8ff
=3	=3
4.g	8gg
.	8ff
.	8gg
4.a	4e-
.	8gg
=4	=4
4.b-	4ff
.	8b-
4.r	4d
.	8ff
=5	=5
4.dd	8bb-
.	8aa
.	8bb-
4.b-	4g
.	8bb-
=6	=6
4.g	4e
.	8bb-
4r	4c
8gg	8bb-
=7	=7
4cc	8aa
.	8gg
8dd	8ff
4.b-	8cc
.	8ff
.	8ee
=8	=8
4.a	4ff
.	8cc
[4.dd	4f
.	8ff
=9	=9
4dd]	8gg
.	8ff
8g	8gg
[4.cc	4e-
.	8gg
=10	=10
4cc]	4ff
8f	8b-
[4.b-	4d
.	8b-
=11	=11
8b-]	8cc
8a	8dd
8b-	8ee-
4c	4A
8a	8ee-
=12	=12
4.b-	4dd
.	8f
[4.dd	4B-
.	8ff
=13	=13
4dd]	4gg
8g	8b-
4cc	4e-
8ee-	8gg
=14	=14
4.f	4aa
.	8f
4r	4bb-
8gg	8ee-
=15	=15
8ff	8dd
8ee-	8cc
8dd	8b-
4cc	8f
.	8b-
8f	8a
=16	=16
4.d	4b-
.	8f
[4.dd	4B-
.	8ff
=17	=17
4dd]	8gg
.	8ff
8g	8gg
[4.cc	4e-
.	8gg
=18	=18
4cc]	4ff
8f	8b-
[4.b-	4d
.	8b-
=19	=19
8b-]	8cc
8a	8dd
8b-	8ee-
4c	4A
8a	8ee-
=20	=20
4.b-	4dd
.	8f
[4.dd	4B-
.	8ff
=21	=21
4dd]	4gg
8g	8b-
4cc	4e-
8ee-	8gg
=22	=22
4.f	4aa
.	8f
4r	4bb-
8gg	8ee-
=23	=23
8ff	8dd
8ee-	8cc
8dd	8b-
4cc	8f
.	8b-
8f	8a
=24	=24
4.d	4b-
.	8ee-
4r	[4.dd
8b-	.
=25	=25
4.a	4dd]
.	8ee-
4r	[4.dd
8b-	.
=26	=26
4.a	4dd]
.	8ee-
4r	4dd
8ee-	8cc
=27	=27
8dd	8b-
8cc	8a
8b-	8g
4.a	8d
.	8g
.	8f#
=28	=28
4.g	4g
.	8aa-
4r	[4.gg
8ee-	.
=29	=29
4.dd	4gg]
.	8aa-
4r	[4.gg
8ee-	.
=30	=30
4.dd	4gg]
.	8aa-
4r	4gg
8aa-	8ff
=31	=31
8gg	8ee-
8ff	8dd
8ee-	8cc
4.dd	8g
.	8cc
.	8b
=32	=32
4cc	4.cc
8ee-	.
4dd	4r
8g	8gg
=33	=33
4r	8ee-
.	8dd
8ee-	8cc
4dd	4r
8g	8gg
=34	=34
4r	8ee-
.	8dd
8ee-	8cc
4dd	4r
8g	8gg
=35	=35
4.gg	4.ee-
4.gg	4.dd
=36	=36
4.gg	4.cc#
4r	4r
8ff	8aa
=37	=37
8ee	8gg
8ff	8aa
8dd	8ff
8a	4.ee
8dd	.
8cc#	.
=38	=38
4.dd	2dd
4.a	.
.	8ee-
.	8cc
=39	=39
4.d	8b-
.	8cc
.	8a
4r	8g
.	8a
8g	8b-
=40	=40
4e	4c#
8A	8a
4.d	4f
.	8e
=41	=41
4r	8f
.	8a
8g	8dd
8f	4A
8g	.
8e	8cc#
=42	=42
2.d	[2d
.	8d]
.	8ff
=43	=43
4.f	8dd
.	8cc
.	8b-
4.dd	4ff
.	8bb-
=44	=44
4.cc	4aa
.	8cc
4r	4f
8dd	8ff
=45	=45
4.g	8gg
.	8ff
.	8gg
4.a	4e-
.	8gg
=46	=46
4.b-	4ff
.	8b-
4.r	4d
.	8ff
=47	=47
4.dd	8bb-
.	8aa
.	8bb-
4.b-	4g
.	8bb-
=48	=48
4.g	4e
.	8bb-
4r	4c
8gg	8bb-
=49	=49
4cc	8aa
.	8gg
8dd	8ff
4.b-	8cc
.	8ff
.	8ee
=50	=50
*	*
!!!RWG: This file only contains pitch and duration data.
!!!RWG: Transposing instruments are not transposed.
!!!RWG: Durations of rests and tied notes may be interpreted.
4.a	4ff
.	8cc
[4.dd	4f
.	8ff
=51	=51
4dd]	8gg
.	8ff
8g	8gg
[4.cc	4e-
.	8gg
=52	=52
4cc]	4ff
8f	8b-
[4.b-	4d
.	8b-
=53	=53
8b-]	8cc
8a	8dd
8b-	8ee-
4c	4A
8a	8ee-
=54	=54
4.b-	4dd
.	8f
[4.dd	4B-
.	8ff
=55	=55
4dd]	4gg
8g	8b-
4cc	4e-
8ee-	8gg
=56	=56
4.f	4aa
.	8f
4r	4bb-
8gg	8ee-
=57	=57
8ff	8dd
8ee-	8cc
8dd	8b-
4cc	8f
.	8b-
8f	8a
=58	=58
4.d	4b-
.	8f
[4.dd	4B-
.	8ff
=59	=59
4dd]	8gg
.	8ff
8g	8gg
[4.cc	4e-
.	8gg
=60	=60
4cc]	4ff
8f	8b-
[4.b-	4d
.	8b-
=61	=61
8b-]	8cc
8a	8dd
8b-	8ee-
4c	4A
8a	8ee-
=62	=62
4.b-	4dd
.	8f
[4.dd	4B-
.	8ff
=63	=63
4dd]	4gg
8g	8b-
4cc	4e-
8ee-	8gg
=64	=64
4.f	4aa
.	8f
4r	4bb-
8gg	8ee-
=65	=65
8ff	8dd
8ee-	8cc
8dd	8b-
4cc	8f
.	8b-
8f	8a
=66	=66
4.d	4.b-
4r	4r
8e-	8g
=67	=67
4.f	4.A
4r	4r
8dd	8f
=68	=68
8cc	8e-
8dd	8f
8b-	8d
4f	4c
8a	8f
=69	=69
[2b-	[2d
8b-]	8d]
8r	8r
==	==
*-	*-
!!!RWG: This file only contains pitch and duration data.
!!!RWG: Transposing instruments are not transposed.
!!!RWG: Durations of rests and tied notes may be interpreted.
!!!RWG: Key is interpreted using the Humdrum key tool.
!!!SCA: 
!!!YOR: Chrysander Edition
!!!AGN: concerto grosso
!!!AFT: stage1
!!!ENC: F. Bennion
!!!END: 1997/04/15
!!!AST: baroque
!!!YEC: Copyright 1994, Center for Computer Assisted Research in the Humanities
!!!YEM: Rights to all derivative electronic formats reserved.
!!!YEM: Refer to licensing agreement for further details.
!!!YEN: United States of America
!!!EED: W.B. Hewlett
!!!KEY: 84148409
!!!EMD: Converted from MuseData to Humdrum Aug 2, 1999, by Bret Aarden using muse2kern.
!!!VTS: 3441246016
